!!!COM: Palestrina, Giovanni Perluigi da
!!!OPR: Missa Quinti toni
!!!OMD: Gloria
!!!OTL: First Section
**kern	**kern	**kern	**kern	**kern	**kern
*Ibass	*Itenor	*Itenor	*Icalto	*Icant	*Icant
!Bassus	!Tenor 2	!Tenor 1	!Altus	!Cantus 2	!Cantus 1
*clefF4	*clefGv2	*clefGv2	*clefG2	*clefG2	*clefG2
*k[b-]	*k[b-]	*k[b-]	*k[b-]	*k[b-]	*k[b-]
*F:ion	*F:ion	*F:ion	*F:ion	*F:ion	*F:ion
*M4/2	*M4/2	*M4/2	*M4/2	*M4/2	*M4/2
=1	=1	=1	=1	=1	=1
0r	1.f	1.F	1.a	1.cc	0r
.	2f	2F	2a	2cc	.
=2	=2	=2	=2	=2	=2
0r	1e	1A	1a	1cc	0r
.	1d	1B-	1f	1b-	.
=3	=3	=3	=3	=3	=3
1.F	2c	2.c	4f	0a	1.cc
.	.	.	4g	.	.
.	1f	.	4a	.	.
.	.	4B-	4b-	.	.
.	.	2.A	2cc	.	.
2F	2f	.	[2c	.	2cc
.	.	4G	.	.	.
=4	=4	=4	=4	=4	=4
1A	1f	1F	2c]	2r	1cc
.	.	.	2c	2cc	.
1B-	1d	2r	2f	4dd	1b-
.	.	.	.	4cc	.
.	.	2B-	2f	4dd	.
.	.	.	.	4ee	.
=5	=5	=5	=5	=5	=5
2F	2c	2c	2.f	0ff	2a
2F	1f	2A	.	.	2cc
.	.	.	4e	.	.
[1BB-	.	2.B-	2d	.	4dd
.	.	.	.	.	4cc
.	[2d	.	2B-	.	4dd
.	.	4c	.	.	4ee
=6	=6	=6	=6	=6	=6
2BB-]	2d]	4d	2b-	1dd	2ff
.	.	4e	.	.	.
2BB-	2d	2f	2b-	.	2ff
1C	1e	2r	1g	[1cc	1ee
.	.	[2c	.	.	.
=7	=7	=7	=7	=7	=7
1.F	1f	4c]	1.a	0cc]	0r
.	.	4B-	.	.	.
.	.	4A	.	.	.
.	.	4G	.	.	.
.	1c	2F	.	.	.
2E	.	2G	2g	.	.
=8	=8	=8	=8	=8	=8
2D	2d	2A	2f	0r	0r
2C	2g	2c	2e	.	.
1G	1g	1B	1d	.	.
=9	=9	=9	=9	=9	=9
1F	4a	1c	1f	1r	2r
.	4g	.	.	.	.
.	4f	.	.	.	2.ff
.	4e	.	.	.	.
1r	1d	2r	2r	2r	.
.	.	.	.	.	4ee
.	.	[2B-	[2b-	[2ff	4dd
.	.	.	.	.	4cc
=10	=10	=10	=10	=10	=10
0r	0r	2B-]	2b-]	2ff]	2dd
.	.	2c	2g	2ee	2cc
.	.	2d	2.f	2dd	2b-
.	.	2f	.	2cc	2a
.	.	.	4f	.	.
=11	=11	=11	=11	=11	=11
0r	0r	1B-	1f	1b-	1dd
.	.	1F	1f	[1a	1cc
=12	=12	=12	=12	=12	=12
1F	1f	0r	2r	1a]	1cc
.	.	.	2a	.	.
1D	1f	.	1a	1r	1dd
=13	=13	=13	=13	=13	=13
1C	1g	1r	1cc	1r	1ee
[1F	1a	2r	2cc	2r	[1ff
.	.	[2f	[2a	[2cc	.
=14	=14	=14	=14	=14	=14
1F]	2r	2f]	2a]	2cc]	0ff]
.	2.f	2f	2a	2cc	.
1r	.	1d	2b-	1dd	.
.	4f	.	.	.	.
.	2f	.	2a	.	.
=15	=15	=15	=15	=15	=15
1r	2g	2c	1cc	2ee	1r
.	2g	2c	.	2ee	.
2r	2a	[1f	1cc	[1ff	2r
[2F	[2A	.	.	.	[2cc
=16	=16	=16	=16	=16	=16
2F]	2A]	1f]	2r	0ff]	2cc]
2F	2A	.	1f	.	2cc
1D	2B-	1r	.	.	1dd
.	2A	.	2f	.	.
=17	=17	=17	=17	=17	=17
1C	2.c	2r	2g	1r	1ee
.	.	2c	2g	.	.
.	4B-	.	.	.	.
[1F	4A	2c	1a	2r	[1ff
.	4G	.	.	.	.
.	4A	2c	.	2cc	.
.	4B-	.	.	.	.
=18	=18	=18	=18	=18	=18
1F]	1c	1A	2r	2cc	1ff]
.	.	.	2cc	2cc	.
1r	2r	1G	2cc	1dd	1r
.	2g	.	2b	.	.
=19	=19	=19	=19	=19	=19
1C	2g	1c	1cc	2.ee	2r
.	2g	.	.	.	2cc
.	.	.	.	4ff	.
2C	1e	2r	[1g	2gg	2cc
2C	.	2G	.	[2cc	2cc
=20	=20	=20	=20	=20	=20
1G	0d	2G	0g]	2cc]	1dd
.	.	2G	.	4b	.
.	.	.	.	4a	.
1G	.	2d	.	1b	1dd
.	.	2g	.	.	.
=21	=21	=21	=21	=21	=21
1C	1c	1e	1g	1cc	1ee
1r	1r	1r	1r	1r	1r
=22	=22	=22	=22	=22	=22
0r	1.B-	0r	1.b-	1.dd	1.ff
.	2B-	.	2b-	2dd	2ff
=23	=23	=23	=23	=23	=23
0r	1d	0r	1a	1dd	1ff
.	1f	.	1a	1cc	1ff
=24	=24	=24	=24	=24	=24
0r	2c	0r	2g	2cc	2ee
.	2c	.	1g	2cc	2ee
.	[1g	.	.	4b-	2.dd
.	.	.	.	4cc	.
.	.	.	[2b-	4dd	.
.	.	.	.	4ee-	4cc
=25	=25	=25	=25	=25	=25
0r	1g]	0r	4b-]	1dd	1b-
.	.	.	4a	.	.
.	.	.	1g	.	.
.	[1d	.	.	1dd	1a
.	.	.	2f#	.	.
=26	=26	=26	=26	=26	=26
1.G	1d]	2r	2g	2r	1.b
.	.	1d	1g	1dd	.
.	2r	.	.	.	.
2G	2G	2d	2g	2dd	2b
=27	=27	=27	=27	=27	=27
1G	1B	1d	1g	1gg	1dd
2C	1c	1e	2g	1ee	[1cc
[2c	.	.	2g	.	.
=28	=28	=28	=28	=28	=28
2c]	1c	2g	2e	0r	1cc]
2A	.	2c	2f	.	.
2B-	2r	2d	4g	.	1r
.	.	.	8f	.	.
.	.	.	8g	.	.
[2c	2c	[2e	[2a	.	.
=29	=29	=29	=29	=29	=29
4c]	2e	4e]	4a]	0r	0r
4B-	.	4d	4g	.	.
2A	2f	1c	1f	.	.
1G	1g	.	.	.	.
.	.	2B-	2e	.	.
=30	=30	=30	=30	=30	=30
1F	2.a	1c	2f	1cc	2r
.	.	.	1a	.	1ff
.	4g	.	.	.	.
1r	1f	1d	.	2a	.
.	.	.	2f	2b-	2dd
=31	=31	=31	=31	=31	=31
0r	0r	2c	2g	4cc	2ee
.	.	.	.	8b-	.
.	.	.	.	8cc	.
.	.	2B-	2b-	2.dd	2.ff
.	.	2.d	1f	.	.
.	.	.	.	4cc	4ee
.	.	.	.	[2b-	2dd
.	.	4e	.	.	.
=32	=32	=32	=32	=32	=32
1r	1r	1f	2r	2b-]	1cc
.	.	.	2.f	2a	.
2r	2r	1B-	.	1b-	1b-
.	.	.	4f	.	.
[2B-	[2f	.	2f	.	.
=33	=33	=33	=33	=33	=33
4B-]	4f]	0r	1d	2r	2r
4B-	4f	.	.	.	.
2B-	2f	.	.	2.dd	2.b-
1G	1g	.	2B-	.	.
.	.	.	.	4dd	4b-
.	.	.	[2b-	2dd	2b-
=34	=34	=34	=34	=34	=34
1F	1c	2r	2b-]	1ff	1cc
.	.	2.f	2a	.	.
[1B-	1r	.	2.b-	2ff	1dd
.	.	4f	.	.	.
.	.	2f	.	[2dd	.
.	.	.	4a	.	.
=35	=35	=35	=35	=35	=35
2B-]	0r	2d	4f	2dd]	0r
.	.	.	4g	.	.
2c	.	2e	1a	4cc	.
.	.	.	.	4b-	.
1d	.	2f	.	2a	.
.	.	2g	4g	2b-	.
.	.	.	4f	.	.
=36	=36	=36	=36	=36	=36
0c	1r	1a	2e	1cc	0r
.	.	.	1f	.	.
.	2r	1g	.	1cc	.
.	[2c	.	2e	.	.
=37	=37	=37	=37	=37	=37
1.F	2c]	2r	1f	1.a	1.cc
.	2c	1f	.	.	.
.	1A	.	1r	.	.
2F	.	2f	.	2a	2cc
=38	=38	=38	=38	=38	=38
1D	1F	1f	2r	1a	1dd
.	.	.	2f	.	.
1C	2r	1e	1g	1cc	1ee
.	[2c	.	.	.	.
=39	=39	=39	=39	=39	=39
1F	2c]	1A	1a	0r	1ff
.	1d	.	.	.	.
1G	.	1B-	2g	.	2dd
.	[2e	.	2g	.	2g
=40	=40	=40	=40	=40	=40
1A	4e]	1c	2e	0r	1cc
.	4d	.	.	.	.
.	1c	.	2f	.	.
1G	.	1d	2g	.	1r
.	2B	.	[2g	.	.
=41	=41	=41	=41	=41	=41
0C	0c	2.e	4g]	2r	1r
.	.	.	4g	.	.
.	.	.	2g	2.cc	.
.	.	4f	.	.	.
.	.	1g	[1e	.	2r
.	.	.	.	4cc	.
.	.	.	.	2cc	[2cc
=42	=42	=42	=42	=42	=42
0r	2r	1c	1e]	2a	4cc]
.	.	.	.	.	4cc
.	2.c	.	.	2g	2cc
.	.	1r	2.e	2.cc	2a
.	4c	.	.	.	.
.	2c	.	.	.	2g
.	.	.	4d	4dd	.
=43	=43	=43	=43	=43	=43
0r	1A	0r	2c	2ee	1cc
.	.	.	1cc	2ff	.
.	1G	.	.	1gg	1dd
.	.	.	2b	.	.
=44	=44	=44	=44	=44	=44
0r	1.c	0r	1.cc	2.gg	2.ee
.	.	.	.	4ff	4ff
.	.	.	.	2ee	2gg
.	2d	.	2a	[2dd	2ff
=45	=45	=45	=45	=45	=45
0r	2.e	0r	0g	2dd]	1ee
.	.	.	.	1cc	.
.	4f	.	.	.	.
.	1g	.	.	.	1dd
.	.	.	.	2b	.
=46	=46	=46	=46	=46	=46
0F	1.c	0A	0a	1cc	0ff
.	.	.	.	[1cc	.
.	2d	.	.	.	.
=47	=47	=47	=47	=47	=47
1C	1e	2.c	1g	1cc]	1ee
.	.	4B-	.	.	.
2.F	1c	2.A	[1f	1cc	[1ff
4E	.	4G	.	.	.
=48	=48	=48	=48	=48	=48
2D	1.d	1F	1f_	1.ff	2ff]
2C	.	.	.	.	2ee
[1BB-	.	[1B-	1f_	.	2dd
.	2e	.	.	2ee	2cc
=49	=49	=49	=49	=49	=49
1BB-]	2f	1B-]	1f]	1dd	1b-
.	2.F	.	.	.	.
[1F	.	2c	1f	2cc	2a
.	4G	.	.	.	.
.	4A	[2f	.	[2a	[2cc
.	4B-	.	.	.	.
=50	=50	=50	=50	=50	=50
1F]	1c	4f]	1r	4a]	4cc]
.	.	4f	.	4a	4cc
.	.	2f	.	2a	2cc
1r	1r	2B-	1r	2b-	2dd
.	.	2F	.	2cc	2a
=51	=51	=51	=51	=51	=51
1r	1r	0B-	1r	2.dd	2.ff
.	.	.	.	4ee	4ee
1r	1r	.	1r	4ff	4dd
.	.	.	.	4gg	4cc
.	.	.	.	[2ff	[2dd
=52	=52	=52	=52	=52	=52
1r	1r	1c	1r	2ff]	2dd]
.	.	.	.	2ee	1cc
1r	1r	1g	1r	1dd	.
.	.	.	.	.	2b
=53	=53	=53	=53	=53	=53
2r	2r	2c	1r	0cc	2cc
2.F	2.c	2.f	.	.	2.a
.	.	.	1r	.	.
4F	4c	4f	.	.	4a
2F	2c	2f	.	.	2a
=54	=54	=54	=54	=54	=54
2G	2B-	1.d	2r	1r	2g
2D	2A	.	2.f	.	2a
2.B-	2r	.	.	1r	1dd
.	.	.	4f	.	.
.	2d	2B-	2f	.	.
4A	.	.	.	.	.
=55	=55	=55	=55	=55	=55
4G	2d	2.B-	2g	1r	2b-
4F	.	.	.	.	.
1G	2.B-	.	2d	.	2g
.	.	4c	.	.	.
.	.	2d	2b-	1r	1dd
.	4A	.	.	.	.
2D	2F	[2d	2a	.	.
=56	=56	=56	=56	=56	=56
1E-	2.G	2d]	1g	1r	1r
.	.	2c	.	.	.
.	4A	.	.	.	.
2.BB-	2.B-	1d	[1f	2r	2r
.	.	.	.	[2b-	[2dd
4C	8A	.	.	.	.
.	8G	.	.	.	.
=57	=57	=57	=57	=57	=57
4D	1F	1r	1f]	2b-]	2dd]
4E	.	.	.	.	.
2F	.	.	.	2a	2cc
1BB-	[1f	2r	2r	2.b-	1dd
.	.	[2B-	[2d	.	.
.	.	.	.	4cc	.
=58	=58	=58	=58	=58	=58
1r	1f_	2B-]	2d]	4dd	2.ff
.	.	.	.	4ee	.
.	.	2A	2c	2.ff	.
.	.	.	.	.	4ee
1r	1f_	2.B-	2.d	.	4dd
.	.	.	.	4ee	4cc
.	.	.	.	[2dd	2b-
.	.	4c	4e	.	.
=59	=59	=59	=59	=59	=59
1r	1f]	4d	4f	2dd]	2.a
.	.	4e	4g	.	.
.	.	1f	1a	4cc	.
.	.	.	.	4b-	4b-
1r	1r	.	.	4a	1cc
.	.	.	.	4b-	.
.	.	2e	2g	[2cc	.
=60	=60	=60	=60	=60	=60
1r	1r	1d	1f	2cc]	1dd
.	.	.	.	2b	.
2r	2r	2.c	[1g	1cc	2.ee
[2C	[2e	.	.	.	.
.	.	8B-	.	.	4ff
.	.	8A	.	.	.
=61	=61	=61	=61	=61	=61
2C]	2e]	1G	1g]	2r	1gg
2BB	2d	.	.	2.gg	.
2.C	1e	2r	2r	.	1g
.	.	.	.	4ff	.
.	.	[2c	[2g	[2ee	.
4D	.	.	.	.	.
=62	=62	=62	=62	=62	=62
4E	2.g	2c]	2g]	2ee]	2r
4F	.	.	.	.	.
2G	.	2B	2g	2.dd	2dd
.	4f	.	.	.	.
1C	1e	1c	1g	.	2ee
.	.	.	.	4cc	.
.	.	.	.	[2cc	2ee
=63	=63	=63	=63	=63	=63
1G	1d	1d	1g	2cc]	1gg
.	.	.	.	2b	.
[1C	[1c	[1e	[1g	[1cc	[1ee
=64	=64	=64	=64	=64	=64
1C]	1c]	1e]	1g]	1cc]	1ee]
*-	*-	*-	*-	*-	*-
!!!CDT: 1525/^1526/-1594/2/2
!!!OCY: Italia
!!!AGN: Mass (Free)
!!!AST: renaissance, vocal
!!!ASW: Motet 1532 (Penet)
!!!PWK: Masses, Book 10
!!!RNB: Cadence finals: C
!!!YOR: Le Opere Complete, v. 27, p. 120
!!!YOO: Rome, Italy: Fratelli Scalera
!!!END: 1992//
!!!EED: John Miller
!!!YEC: Copyright 2000, John Miller
!!!YEN: United States of America
!!!YEM: Rights to all derivative electronic formats reserved.
!!!YEM: Refer to licensing agreement for further details.
!!!YEM: This file must be accompanied by the licensing agreement.
!!!YEM: A copy of the licensing agreement may be found at http://www.music-cog.ohio-state.edu/HumdrumDatabases/Palestrina/license.txt
!!!EMD: converted to Humdrum by Bret Aarden
